X: 1
B: Cole's 1000 Fiddle Tunes
T:RECREATION -- REEL.
R:reel
C:FRANK LIVINGSTON.
B:Coles 43.4
Z:John Walsh <walsh:mat:h.ubc.ca>
M:2/4
L:1/16
Z: Contributed 20000514053321 by John Walsh walsh:mat:h.ubc.ca
K:G
v{DEF}G3uF GABc|dgba gdBA|v{DEF}G3uF GABG|AdBG "4"AGED|
v{DEF}G3vF GABc|dgba gdBG|v{def}gfed cBAG|FedF G2 :|
|:v{ga}bagf (gd) z ud|egfe (dB) zz|v{ga}bagf (gd) z ud|egfa g4|
{ga}bagf (gd) z ud|egfe (dB) zz|v{DEF}GFGA Bdgd|egfa g4:|


